public/svg/postgres-js.svg

<svg xmlns="http://www.w3.org/2000/svg" viewBox="0 0 36 36" xmlns:v="https://vecta.io/nano"><path d="M29.546 30.937c-.319 0-.637-.158-.835-.476a1.02 1.02 0 0 1 .318-1.39l1.945-1.231h.041c1.032-.596 1.708-1.748 1.708-2.939V12.072c0-1.193-.636-2.343-1.708-2.94h-.041L19.893 2.221c-.477-.277-.913-.08-1.072 0a1.1 1.1 0 0 0-.557.954v14.497c0 1.073.557 2.026 1.43 2.582.914.556 1.986.595 2.94.118l2.74-1.35c.477-.238 1.073-.04 1.35.437.239.477.041 1.073-.436 1.351l-2.74 1.35c-1.55.794-3.377.715-4.886-.238-1.469-.913-2.383-2.503-2.383-4.25V3.175c0-1.113.596-2.105 1.549-2.661s2.106-.558 3.098 0h.04l11.081 6.911c1.669.953 2.661 2.74 2.661 4.647V24.94a5.42 5.42 0 0 1-2.661 4.647l-1.946 1.231c-.199.08-.358.119-.555.119zm-14.379 4.926a2.94 2.94 0 0 1-1.509-.398l-9.414-5.321c-1.788-1.034-2.939-2.979-2.939-5.085v-9.015c0-2.662 1.43-5.125 3.694-6.435l6.632-3.892a.98.98 0 0 1 1.351.357.98.98 0 0 1-.357 1.351l-6.633 3.892c-1.669.953-2.701 2.78-2.701 4.727v9.015a3.89 3.89 0 0 0 1.906 3.337l9.414 5.322c.476.278.913.08 1.072 0s.516-.357.516-.914v-6.791c0-.556.437-.994.994-.994a.98.98 0 0 1 .992.994v6.791c0 1.113-.556 2.105-1.509 2.661-.437.28-.993.398-1.509.398zm14.458-17.039c.548 0 .992-.445.992-.993s-.444-.993-.992-.993-.993.445-.993.993.444.993.993.993z"/></svg>

<svg viewBox="0 0 36 36" xmlns="http://www.w3.org/2000/svg">
  <path d="M 29.546 30.937 C 29.227 30.937 28.909 30.779 28.711 30.461 C 28.432 29.984 28.552 29.388 29.029 29.071 L 30.974 27.84 L 31.015 27.84 C 32.047 27.244 32.723 26.092 32.723 24.901 L 32.723 12.072 C 32.723 10.879 32.087 9.729 31.015 9.132 C 31.015 9.132 31.015 9.132 30.974 9.132 L 19.893 2.221 C 19.416 1.944 18.98 2.141 18.821 2.221 C 18.662 2.301 18.264 2.618 18.264 3.175 L 18.264 17.672 C 18.264 18.745 18.821 19.698 19.694 20.254 C 20.608 20.81 21.68 20.849 22.634 20.372 L 25.374 19.022 C 25.851 18.784 26.447 18.982 26.724 19.459 C 26.963 19.936 26.765 20.532 26.288 20.81 L 23.548 22.16 C 21.998 22.954 20.171 22.875 18.662 21.922 C 17.193 21.009 16.279 19.419 16.279 17.672 L 16.279 3.175 C 16.279 2.062 16.875 1.07 17.828 0.514 C 18.781 -0.044 19.934 -0.044 20.926 0.514 C 20.926 0.514 20.926 0.514 20.966 0.514 L 32.047 7.425 C 33.716 8.378 34.708 10.165 34.708 12.072 L 34.708 24.94 C 34.708 26.846 33.676 28.634 32.047 29.587 L 30.101 30.818 C 29.902 30.898 29.743 30.937 29.546 30.937 Z"></path>
  <path d="M 15.167 35.863 C 14.65 35.863 14.134 35.745 13.658 35.465 L 4.244 30.144 C 2.456 29.11 1.305 27.165 1.305 25.059 L 1.305 16.044 C 1.305 13.382 2.735 10.919 4.999 9.609 L 11.631 5.717 C 12.108 5.438 12.704 5.597 12.982 6.074 C 13.26 6.551 13.102 7.146 12.625 7.425 L 5.992 11.317 C 4.323 12.27 3.291 14.097 3.291 16.044 L 3.291 25.059 C 3.291 26.449 4.045 27.72 5.197 28.396 L 14.611 33.718 C 15.087 33.996 15.524 33.798 15.683 33.718 C 15.842 33.639 16.199 33.361 16.199 32.804 L 16.199 26.013 C 16.199 25.457 16.636 25.019 17.193 25.019 C 17.749 25.019 18.185 25.457 18.185 26.013 L 18.185 32.804 C 18.185 33.917 17.629 34.909 16.676 35.465 C 16.239 35.745 15.683 35.863 15.167 35.863 Z"></path>
  <path d="M 29.625 18.824 C 30.173 18.824 30.617 18.379 30.617 17.831 C 30.617 17.283 30.173 16.838 29.625 16.838 C 29.076 16.838 28.632 17.283 28.632 17.831 C 28.632 18.379 29.076 18.824 29.625 18.824 Z"></path>
</svg>
